X:7
T:Petit Branle
S:http://www.fourwinds.demon.nl/branles.htm
Z:Jack Campin <http://www.campin.me.uk/> 2002
M:C|
L:1/8
K:C
   c2c2 B2g2|a2gf e3  f|   g2fe d2c2:|
   cdef g4  |agab c'2b2|[1 a4   g4  :|\
                        [2 a4    g2 ||
ef|g2g2 g2ef|gfga g4  |abc'2 b2a2|   g3f e2cd|
   e2e2 e2cd|edef e2cd|efg2  f2e2|[1 d4  c2 :|\
                                  [2 d4 c4  |]
